X:1
T:Totteridge, 66.84
T:Sydney Hugo Nicholson, 1916
T:Totteridge, 66.84
T:Public Domain
C:Sydney Hugo Nicholson, 1916
Z:Public Domain
%%score ( 1 2 ) ( 3 4 )
L:1/8
M:none
K:C
V:1 treble 
V:2 treble 
V:3 bass 
V:4 bass 
V:1
 [CE]2 [CF]2 G2 | (G2 F2) [Gc]2 | [Gd]4 G2 | (G2 F2) [EG]2 | [DA]2 [FG]2 F2 | [DG]4 [FB]2 | %6
 [Ad]2 G2 | [^Ge]2 [EB]2 | [Ec]2 (FE) | (D2 C2) | [CA]2 [Fd]3 [FB] | [Ec]6 |] %12
V:2
 x4 G2 | A4 x2 | x4 G2 | c4 x2 | x4 F2 | x6 | x2 G2 | x4 | x2 A2 | F4 | x6 | x6 |] %12
V:3
 [C,G,]2 [D,G,]2 [E,C]2 | [F,C]4 [E,C]2 | [G,B,]4 [F,B,]2 | (E,2 D,2) (CB,) | %4
 [F,A,]2 [G,B,]2 [A,C]2 | (C2 B,2) [E,C]2 | [F,C]2 (G,F,) | [E,B,]2 [^G,D]2 | [A,C]2 [D,C]2 | %9
 ([F,B,]2 [E,C]2) | [F,A,]2 [D,A,]3 G, | [C,G,]6 |] %12
V:4
 x6 | x6 | x6 | C4 C,2 | x6 | G,4 x2 | x2 B,2 | x4 | x4 | x4 | x5 G, | x6 |] %12

